assets/ai/ai-preregistered-de-plus-square.svg

<svg xmlns="http://www.w3.org/2000/svg" width="100%" height="100%" viewBox="-75.52 -43.52 599.04 599.04"><path d="M 48 32 C 21.5 32 0 53.5 0 80 L 0 432 C 0 458.5 21.5 480 48 480 L 400 480 C 426.5 480 448 458.5 448 432 L 448 80 C 448 53.5 426.5 32 400 32 L 48 32 z M 223.97266 96 C 233.31663 96 242.65698 98.052488 249.70703 102.14258 L 344.37891 156.7832 C 358.53473 164.95776 370.12109 185.01189 370.12109 201.35547 L 370.12109 310.65039 C 370.12109 326.99959 358.53473 347.05955 344.37891 355.22852 L 249.70703 409.88281 C 242.65698 413.96731 233.31663 416 223.97266 416 C 214.68472 416 205.34302 413.96731 198.29297 409.88281 L 103.62109 355.22852 C 89.465289 347.05955 77.878906 326.99959 77.878906 310.65039 L 77.878906 201.35547 C 77.878906 185.01189 89.465289 164.95776 103.62109 156.7832 L 198.29297 102.14258 C 205.34302 98.052488 214.68472 96 223.97266 96 z M 231.49609 164.76562 L 231.49609 200.66406 L 257.91016 200.66406 L 257.91016 192.61523 L 240.11914 192.61523 L 240.11914 186.25977 L 253.82031 186.25977 L 253.82031 178.71289 L 240.11914 178.71289 L 240.11914 172.81445 L 257.63477 172.81445 L 257.63477 164.76562 L 231.49609 164.76562 z M 192.85938 164.77148 L 192.85938 200.66992 L 208.61523 200.66992 C 218.80405 200.66992 227.17578 193.64023 227.17578 182.87305 C 227.17578 172.10591 218.80405 164.77148 208.61523 164.77148 L 192.85938 164.77148 z M 201.50781 172.82031 L 208.61523 172.82031 C 213.6821 172.82031 218.14258 176.71564 218.14258 182.87305 C 218.14258 189.02491 213.6821 192.61523 208.61523 192.61523 L 201.50781 192.61523 L 201.50781 172.82031 z M 288.00781 214.16992 C 285.28398 214.16992 282.55754 215.20465 280.47266 217.27539 L 206.08984 291.65039 C 201.92071 295.79188 195.19454 295.79188 191.02539 291.65039 L 173.125 273.76367 C 169.01125 269.61666 162.2297 269.61666 158.06055 273.76367 L 146.55859 285.26562 C 143.33411 288.53432 142.44452 296.1886 146.55859 300.33008 L 191.02539 344.7832 C 195.19454 348.92471 201.92071 348.92471 206.08984 344.7832 L 307.04492 243.8418 C 311.15867 239.70031 311.15867 232.92436 307.04492 228.77734 L 295.53711 217.27539 C 293.45254 215.20464 290.73165 214.16992 288.00781 214.16992 z M 293.12305 293.54492 L 293.12305 308.62305 L 278.37695 308.62305 L 278.37695 319.89844 L 293.23242 319.89844 L 293.23242 334.63867 L 305.25391 334.63867 L 305.25391 319.89844 L 320.00195 319.89844 L 320.00195 308.62305 L 305.19922 308.62305 L 305.19922 293.54492 L 293.12305 293.54492 z"/></svg>

<svg xmlns="http://www.w3.org/2000/svg" width="100%" height="100%" viewBox="-75.52 -43.52 599.04 599.04"><path d="M48 32C21.5 32 0 53.5 0 80v352c0 26.5 21.5 48 48 48h352c26.5 0 48-21.5 48-48V80c0-26.5-21.5-48-48-48H48zm175.973 64c9.344 0 18.684 2.052 25.734 6.143l94.672 54.64c14.156 8.175 25.742 28.229 25.742 44.572V310.65c0 16.35-11.586 36.41-25.742 44.579l-94.672 54.654c-7.05 4.084-16.39 6.117-25.734 6.117-9.288 0-18.63-2.033-25.68-6.117l-94.672-54.654c-14.156-8.17-25.742-28.23-25.742-44.579V201.355c0-16.343 11.586-36.397 25.742-44.572l94.672-54.64c7.05-4.09 16.392-6.143 25.68-6.143zm7.523 68.766v35.898h26.414v-8.049h-17.79v-6.355h13.7v-7.547h-13.7v-5.899h17.515v-8.048h-26.139zm-38.637.005v35.899h15.756c10.189 0 18.56-7.03 18.56-17.797s-8.371-18.102-18.56-18.102H192.86zm8.649 8.05h7.107c5.067 0 9.528 3.895 9.528 10.052 0 6.152-4.46 9.742-9.528 9.742h-7.107V172.82zm86.5 41.349c-2.724 0-5.45 1.035-7.535 3.105L206.09 291.65c-4.17 4.142-10.895 4.142-15.065 0l-17.9-17.886c-4.114-4.147-10.895-4.147-15.064 0l-11.502 11.502c-3.225 3.268-4.114 10.923 0 15.064l44.466 44.453c4.17 4.142 10.896 4.142 15.065 0l100.955-100.941c4.114-4.142 4.114-10.918 0-15.065l-11.508-11.502a10.647 10.647 0 00-7.53-3.105zm5.115 79.375v15.078h-14.746v11.275h14.855v14.74h12.022v-14.74h14.748v-11.275h-14.803v-15.078h-12.076z"/></svg>
